!!!COM: Scriabin, Alexander
!!!OTL: Poème
!!!OPR: 2 Poèmes
!!!OPS: 32
!!!ONM: 1
!!!ODT: 1903
!!!AGN: Poème
**kern	**kern
*staff2	*staff1
*clefF4	*clefG2
*k[f#c#g#d#a#e#]	*k[f#c#g#d#a#e#]
*F#:	*F#:
*M9/8	*M9/8
*^	*
8rc	8DnL	4.b#X
8rc	8G#	.
8B#X	8f#J	.
=1	=1	=1
4.BnX	[8BnL	2.dd#X
.	8B_ 8C#	.
.	8B_ [8e#J	.
8A#L	4.B] 4.e#]	.
8F##X	.	.
8G#J	.	.
4d#	8rc	8.f##L
.	4C# 4B 4e#	.
.	.	[16g#LL
8c#	.	16g#]
.	.	32r
.	.	32a#JJJ
=2	=2	=2
.	.	16qqd#/LL
.	.	16qqe#/JJ
[4.A#	8A#L	[4.cc#
.	8E#	.
.	8GGnJ	.
4A#]	8E#L	4cc#]
.	8d#	.
8B	8BJ	8b
4.B	8BL	4dd#
.	8e#	.
.	8d#J	8b
=3	=3	=3
*	*	*^
4.d#	8d#L	8a#L	[2.e#
.	8B	8f##X	.
.	8C#J	8g#J	.
4.dn	8dL	4b	.
.	8B	.	.
.	8C#J	[8a#	.
4.c#	8c#L	4a#]	4e#]
.	8B	.	.
.	8C#J	8c#	8rc
*v	*v	*	*
*	*v	*v
=4	=4
.	8qA#/
8FF#L	[4.d#X
8C#	.
8A#J	.
4.c#	16d#LL]
.	16f#X
.	16g#
.	16a#
.	16cc#
.	16dd#JJ
8bL	[4ee#
8c#	.
8GnJ	16ee#LL]
.	16c#JJ
=5	=5
.	8qA#/
*^	*
8FF#L	4.rEE	[4.d#
8C#	.	.
8A#J	.	.
4.c#	4.rEE	16d#LL]
.	.	16f#
.	.	16g#X
.	.	16a#
.	.	16cc#
.	.	16dd#JJ
8rc	8GnL	4.ee#
8rc	8c#	.
8e#	8bJ	.
=6	=6	=6
4.enX	[8enL	2.gg#
.	8e_ 8F#	.
.	8e_ [8a#J	.
8d#L	4.en] 4.a#]	.
8B#X	.	.
8c#J	.	.
4g#	8rc	8.b#XL
.	4F# 4en 4a#	.
.	.	[16cc#L
8f#	.	16cc#]
.	.	16dd#JJ
=7	=7	=7
.	.	16qqg#/LL
.	.	16qqa#/JJ
[4.d#	8d#L	[4.ff#
.	8A#	.
.	8CnJ	.
4d#]	8A#L	4ff#]
.	8g#	.
8en	8eJ	8een
4.e	8eL	4gg#
.	8a#	.
.	8g#J	8ee
=8	=8	=8
*	*	*^
4.g#	8g#L	8dd#L	[2.a#
.	8en	8b#X	.
.	8F#J	8cc#XJ	.
4.gn	8gL	4een	.
.	8e	.	.
.	8F#J	[8dd#	.
4.f#	8f#L	4dd#]	4a#]
.	8e	.	.
.	8F#J	8f#	8rc
*v	*v	*	*
*	*v	*v
=9	=9
.	8qd#/
8BBnL	[4.g#X
8F#	.
8d#J	.
4.f#	16g#LL]
.	16b
.	16cc#
.	16dd#
.	16ff#
.	16gg#JJ
*clefG2	*
8eenL	[4aa#
8f#	.
8cnJ	16aa#LL]
.	16f#JJ
=10	=10
*clefF4	*
.	8qd#/
8BBL	[4.g#
8F#	.
8d#J	.
4.f#	16g#LL]
.	16b
.	16cc#X
.	16dd#
.	16ff#
.	16gg#JJ
*clefG2	*
8eenL	4.aa#
8f#	.
8cnJ	.
*clefF4	*
=11	=11
.	8qdd#/
*^	*^
8BBL	4.rEE	4.ddd#	4.rc
8F#	.	.	.
[8d#J	.	.	.
4.d#]	4E#	40%3bL 40%3aa#	4.rc
.	.	40%3gg#	.
.	.	40%3dd#	.
.	.	40%3a#	.
.	8F#	.	.
.	.	40%3bJ	.
4.rc	8BBL	[4dd#	40%3rc
.	.	.	40%3d#L
.	8E#	.	.
.	.	.	40%3a#
.	.	.	40%3an
.	8d#J	16dd#LL]	.
.	.	.	40%3g#J
.	.	16dd#JJ	.
*v	*v	*	*
=12	=12	=12
8AA#L	4.ccc#	4.rc
8F#	.	.
8a#J	.	.
4B#X	40%3ee#L	4.rc
.	40%3dd#	.
.	40%3a#X	.
.	40%3e#	.
8c#	.	.
.	40%3f#J	.
8GG#L	[4a#	40%3rc
.	.	40%3B#XL
8F#	.	.
.	.	40%3e#
.	.	40%3en
8B#J	16a#LL]	.
.	.	40%3d#J
.	16a#JJ	.
*	*v	*v
=13	=13
.	8qB#X/
8CC#L	2.aa#
8GG#	.
8F#J	.
8B#XL	.
8d#	.
8b#XJ	.
4r	40%3b#XL
.	40%3a#
.	40%3e#X
.	40%3f#
8r	.
.	40%3a#J
=14	=14
8%9r	2.ee#
.	4.dd#
=15	=15
*M3/4	*M3/4
*	*^
12BL	10.dd#	20dd#LL
.	.	20g#
12C#	.	.
.	.	20e#
.	20dd#KL	20dd#J
24r	.	.
.	40r	40r
24GG#Jk	.	.
.	40gg#Jkk	40gg#Jkk
12CC#L	10.dd#	20dd#LL
.	.	20g#
12GG#	.	.
.	.	20e#
.	20dd#LL	20dd#
24r	.	.
.	20bJJ	20bJJ
24C#Jk	.	.
4B	10.dd#	20dd#LL
.	.	20g#
.	.	20e#
.	20dd#KL	20dd#J
.	40r	40r
.	40dd#Jkk	40dd#Jkk
=16	=16	=16
12A#L	10.dd#	20dd#LL
.	.	20f##X
12C#	.	.
.	.	20en
.	20dd#KL	20dd#J
24r	.	.
.	40r	40r
24FF##XJk	.	.
.	40ff##XJkk	40ff##Jkk
12CC#L	10.dd#	20dd#LL
.	.	20f##
12FF##	.	.
.	.	20e
.	20dd#LL	20dd#
24r	.	.
.	20a#JJ	20a#JJ
24C#Jk	.	.
4A#	10.dd#	20dd#LL
.	.	20f##
.	.	20e
.	20dd#LL	20dd#
.	20a#JJ	20a#JJ
=17	=17	=17
12AnL	10.cc#	20cc#LL
.	.	20f#X
12C#	.	.
.	.	20d#
.	20cc#KL	20cc#J
24r	.	.
.	40r	40r
24FF#XJk	.	.
.	40ff#Jkk	40ff#Jkk
12CC#L	10.cc#	20cc#LL
.	.	20f#
12FF#	.	.
.	.	20d#
.	20cc#LL	20cc#
24r	.	.
.	20anJJ	20aJJ
24C#Jk	.	.
4A	10.cc#	20cc#LL
.	.	20f#
.	.	20d#
.	20cc#KL	20cc#J
.	40r	40r
.	40cc#Jkk	40cc#Jkk
=18	=18	=18
12G#L	10.cc#	20cc#LL
.	.	20e#
12C#	.	.
.	.	20dn
.	20cc#LL	20cc#
24r	.	.
.	20ee#JJ	20ee#JJ
24EE#Jk	.	.
12CC#L	10.cc#	20cc#LL
.	.	20e#
12EE#	.	.
.	.	20d
.	20cc#LL	20cc#
24r	.	.
.	20g#JJ	20g#JJ
24C#Jk	.	.
4G#	10.cc#	20cc#LL
.	.	20e#
.	.	20d
.	20cc#LL	20cc#
.	20g#JJ	20g#JJ
=19	=19	=19
12G#L	10.b	20bLL
.	.	20en
12C#	.	.
.	.	20c#
.	20bKL	20bJ
24r	.	.
.	40r	40r
24FF#Jk	.	.
.	40eenJkk	40eeJkk
12CC#L	10.b	20bLL
.	.	20e
12FF#	.	.
.	.	20c#
.	20bLL	20b
24r	.	.
.	20g#JJ	20g#JJ
24C#Jk	.	.
[10.G#	10.b	20bLL
.	.	20e
.	.	20c#
20G#LL]	20bLL	20b
20F#JJ	20anJJ	20aJJ
=20	=20	=20
*^	*	*
4rc	6En	10.g#	20g#LL
.	.	.	20c#
.	.	.	20An
.	.	20g#KL	20g#J
.	12FF#	.	.
.	.	40r	40r
.	.	40cc#Jkk	40cc#Jkk
4rc	6CC#	10.g#	20g#LL
.	.	.	20c#
.	.	.	20A
.	.	20g#LL	20g#
.	[12FF#	.	.
.	.	20enJJ	20eJJ
[10.E	4FF#]	[10.g#	20g#LL
.	.	.	20B#X
.	.	.	[20A
20ELL]	.	20g#LL]	20A] 20B#
20DnJJ	.	20f#JJ	20f#JJ
=21	=21	=21	=21
4CC# 4GG#X 4C#	4rEE	10.e#	20e#XLL
.	.	.	20c#
.	.	.	20G#
.	.	20c#LL	20c#
.	.	20e#JJ	20e#JJ
4CC# 4GG# 4E#X	4rEE	10.g#	20g#LL
.	.	.	20c#
.	.	.	20G#
.	.	20c#LL	20c#
.	.	20g#JJ	20g#JJ
[10.En	4FF#	[10.g#	20g#LL
.	.	.	20B#X
.	.	.	[20An
20ELL]	.	20g#LL]	20A] 20B#
20DnJJ	.	20f#JJ	20f#JJ
=22	=22	=22	=22
4CC# 4GG# 4C#	4rEE	10.e#	20e#XLL
.	.	.	20c#
.	.	.	20G#
.	.	20c#LL	20c#
.	.	20e#JJ	20e#JJ
4CC# 4GG# 4E#X	4rEE	10.g#	20g#LL
.	.	.	20c#
.	.	.	20G#
.	.	20c#LL	20c#
.	.	20g#JJ	20g#JJ
[10.En	4FF#	[10.g#	20g#LL
.	.	.	20B#X
.	.	.	[20An
20ELL]	.	20g#LL]	20A] 20B#
20DnJJ	.	20f#JJ	20f#JJ
=23	=23	=23	=23
4C#	2CC# 2GG#	10.e#	20e#XLL
.	.	.	20c#
.	.	.	20G#
.	.	20c#LL	20c#
.	.	20e#JJ	20e#JJ
4E#X	.	10.g#	20g#LL
.	.	.	20e#
.	.	.	20c#
.	.	20e#LL	20e#
.	.	20g#JJ	20g#JJ
[4C# [4G#	4rEE	[4dd#	[4e#
*v	*v	*	*
=24	=24	=24
2C#] 2G#]	4.dd#]	2e#]
.	8cc#	.
12DnL	4b#X	4rc
12G#	.	.
12f#J	.	.
*	*v	*v
=25	=25
*M9/8	*M9/8
*^	*^
8dd#XL	4.rEE	8raa	2.dd#X
8e#	.	8raa	.
8BnJ	.	8bbn	.
8C#L	8rEE	8aa#L	.
8B	[4B	8ff##X	.
[8e#J	.	8gg#J	.
.	.	8qee#/	.
4.e#]	8BL]	4ddd#	8.f##XL
.	8B	.	.
.	.	.	[16g#L
.	8c#J	8ccc#	16g#]
.	.	.	16a#JJ
=26	=26	=26	=26
8d#L 8e#	4.rEE	[4.aa#	[4.cc#
8GGn	.	.	.
8E#J	.	.	.
8d#L	4.rEE	4aa#]	4cc#]
8e#	.	.	.
8bJ	.	[8bb	8b
8BL	4B	4bb]	4dd#
8e#	.	.	.
8d#J	8d#	8dd#	8b
*v	*v	*	*
=27	=27	=27
8BL	4dd#	8a#L
8e#	.	8f##X
[8C#J	8ddn	8g#J
8C#L]	4dd	4b
8B	.	.
[8e#J	8cc#	[8a#
8e#L]	8cc#	4a#]
8B	8raa	.
8C#J	8raa	8c#
*	*v	*v
=28	=28
.	8qA#/
8FF#L	[4.d#
8C#	.
8A#J	.
4.c#	16d#LL]
.	16f#
.	16g#
.	16a#
.	16cc#
.	16dd#JJ
8bL	[4ee#
8c#	.
8GnJ	16ee#LL]
.	16c#JJ
=29	=29
.	8qA#/
8FF#L	[4.d#
8C#	.
8A#J	.
4.c#	16d#LL]
.	16f#
.	16g#
.	16a#
.	16cc#
.	16dd#JJ
8GnL	4.ee#
8c#	.
8bJ	.
=30	=30
*^	*^
8gg#L	4.rEE	8raa	2.gg#X
8a#	.	8raa	.
8enJ	.	8eeen	.
8F#L	8rEE	8ddd#L	.
8e	[4e	8bb#X	.
[8a#J	.	8ccc#J	.
.	.	8qaa#/	.
4.a#]	8eL]	4ggg#	8.b#XL
.	8e	.	.
.	.	.	[16cc#L
.	8f#J	8fff#	16cc#]
.	.	.	16dd#JJ
=31	=31	=31	=31
8g#L 8a#	4.rEE	[4.ddd#	[4.ff#
8Cn	.	.	.
8A#J	.	.	.
8g#L	4.rEE	4ddd#]	4ff#]
8a#	.	.	.
8eenJ	.	[8eeen	8een
8enL	4e	4eee]	4gg#
8a#	.	.	.
8g#J	8g#	8gg#	8ee
*v	*v	*	*
=32	=32	=32
8enL	4gg#	8dd#L
8a#	.	8b#X
[8F#J	8ggn	8cc#XJ
8F#L]	4gg	4een
8e	.	.
[8a#J	8ff#	[8dd#
8a#L]	8ff#	4dd#]
8e	8raa	.
8F#J	8raa	8f#
*	*v	*v
=33	=33
.	8qd#/
8BBnL	[4.g#X
8F#	.
8d#J	.
4.f#	16g#LL]
.	16b
.	16cc#
.	16dd#
.	16ff#
.	16gg#JJ
*clefG2	*
8eenL	[4aa#
8f#	.
8cnJ	16aa#LL]
.	16f#JJ
=34	=34
*clefF4	*
.	8qd#/
8BBL	[4.g#
8F#	.
8d#J	.
4.f#	16g#LL]
.	16b
.	16cc#X
.	16dd#
.	16ff#
.	16gg#JJ
*clefG2	*
8eenL	[4aa#
8f#	.
8cnJ	16aa#LL]
.	16f#JJ
*clefF4	*
=35	=35
.	8qdd#/
*^	*^
8BBL	4.rEE	4.ddd#	4.rc
8F#	.	.	.
[8d#J	.	.	.
4.d#]	4E#	40%3bL 40%3aa#	4.rc
.	.	40%3gg#	.
.	.	40%3dd#	.
.	.	40%3a#	.
.	8F#	.	.
.	.	40%3bJ	.
4.rc	8BBL	[4dd#	40%3rc
.	.	.	40%3d#L
.	8E#	.	.
.	.	.	40%3a#
.	.	.	40%3an
.	8d#J	16dd#LL]	.
.	.	.	40%3g#J
.	.	16dd#JJ	.
*v	*v	*	*
=36	=36	=36
8AA#L	4.ccc#	4.rc
8F#	.	.
8a#J	.	.
4B#X	40%3ee#L	4.rc
.	40%3dd#	.
.	40%3a#X	.
.	40%3e#	.
8c#	.	.
.	40%3f#J	.
8GG#L	[4a#	40%3rc
.	.	40%3B#XL
8F#	.	.
.	.	40%3e#
.	.	40%3en
8B#J	16a#LL]	.
.	.	40%3d#J
.	16a#JJ	.
=37	=37	=37
8CC#L	2.aa#	4.rc
8GG#	.	.
8F#J	.	.
8BnL	.	4.rc
8d#	.	.
8bJ	.	.
8qCC#/ 8qC#	.	.
4.E# 4.B 4.d#	40%3ee#L	40%3rc
.	40%3dd#	40%3d#L
.	40%3a#	40%3a#
.	40%3b	40%3an
.	40%3dd#J	40%3g#J
*	*v	*v
=38	=38
.	16qqe#/LL
.	16qqb/
.	16qqdd#/JJ
8FFF#L 8FF#	[2.aa#X
8C#	.
8BJ	.
*clefG2	*
8d#L	.
8e#	.
8bJ	.
4.dd#	4aa#]
.	8gg#
*clefF4	*
=39	=39
*M3/4	*M3/4
*	*^
12enL	10.gg#	20gg#LL
.	.	20cc#
12F#	.	.
.	.	20a#
.	20gg#KL	20gg#J
24r	.	.
.	40r	40r
24C#Jk	.	.
.	40ccc#Jkk	40ccc#Jkk
12FF#L	10.gg#	20gg#LL
.	.	20cc#
12C#	.	.
.	.	20a#
.	20gg#LL	20gg#
24r	.	.
.	20eenJJ	20eeJJ
24F#Jk	.	.
4e	10.gg#	20gg#LL
.	.	20cc#
.	.	20a#
.	20gg#KL	20gg#J
.	40r	40r
.	40gg#Jkk	40gg#Jkk
=40	=40	=40
12d#L	10.gg#	20gg#LL
.	.	20b#X
12F#	.	.
.	.	20an
.	20gg#KL	20gg#J
24r	.	.
.	40r	40r
24BB#XJk	.	.
.	40bb#XJkk	40bb#Jkk
12FF#L	10.gg#	20gg#LL
.	.	20b#
12BB#	.	.
.	.	20a
.	20gg#LL	20gg#
24r	.	.
.	20dd#JJ	20dd#JJ
24F#Jk	.	.
4d#	10.gg#	20gg#LL
.	.	20b#
.	.	20a
.	20gg#LL	20gg#
.	20dd#JJ	20dd#JJ
=41	=41	=41
12dnL	10.ff#	20ff#LL
.	.	20bn
12F#	.	.
.	.	20g#
.	20ff#KL	20ff#J
24r	.	.
.	40r	40r
24BBnJk	.	.
.	40bbJkk	40bbJkk
12FF#L	10.ff#	20ff#LL
.	.	20b
12BB	.	.
.	.	20g#
.	20ff#LL	20ff#
24r	.	.
.	20ddnJJ	20ddJJ
24F#Jk	.	.
4d	10.ff#	20ff#LL
.	.	20b
.	.	20g#
.	20ff#KL	20ff#J
.	40r	40r
.	40ff#Jkk	40ff#Jkk
=42	=42	=42
12c#L	10.ff#	20ff#LL
.	.	20a#
12F#	.	.
.	.	20gn
.	20ff#LL	20ff#
24r	.	.
.	20aa#JJ	20aa#JJ
24AA#Jk	.	.
12FF#L	10.ff#	20ff#LL
.	.	20a#
12AA#	.	.
.	.	20g
.	20ff#LL	20ff#
24r	.	.
.	20cc#JJ	20cc#JJ
24F#Jk	.	.
4c#	10.ff#	20ff#LL
.	.	20a#
.	.	20g
.	20ff#LL	20ff#
.	20cc#JJ	20cc#JJ
=43	=43	=43
12c#L	10.een	20eeLL
.	.	20an
12F#	.	.
.	.	20f#
.	20eeKL	20eeJ
24r	.	.
.	40r	40r
24BBJk	.	.
.	40aanJkk	40aaJkk
12FF#L	10.ee	20eeLL
.	.	20a
12BB	.	.
.	.	20f#
.	20eeLL	20ee
24r	.	.
.	20cc#JJ	20cc#JJ
24F#Jk	.	.
[10.c#	10.ee	20eeLL
.	.	20a
.	.	20f#
20c#LL]	20eeLL	20ee
20BJJ	20ddnJJ	20ddJJ
=44	=44	=44
*^	*	*
4rc	6An	10.cc#	20cc#LL
.	.	.	20f#
.	.	.	20dn
.	.	20cc#KL	20cc#J
.	12BB	.	.
.	.	40r	40r
.	.	40ff#Jkk	40ff#Jkk
4rc	6FF#	10.cc#	20cc#LL
.	.	.	20f#
.	.	.	20d
.	.	20cc#LL	20cc#
.	[12BB	.	.
.	.	20anJJ	20aJJ
[10.A	4BB]	[10.cc#	20cc#LL
.	.	.	20e#X
.	.	.	[20d
20ALL]	.	20cc#LL]	20d] 20e#
20GnJJ	.	20bJJ	20bJJ
=45	=45	=45	=45
4FF# 4C# 4F#	4rEE	10.a#	20a#XLL
.	.	.	20f#
.	.	.	20c#
.	.	20f#LL	20f#
.	.	20a#JJ	20a#JJ
4FF# 4C# 4A#X	4rEE	10.cc#	20cc#LL
.	.	.	20f#
.	.	.	20c#
.	.	20f#LL	20f#
.	.	20cc#JJ	20cc#JJ
[10.An	4BB	[10.cc#	20cc#LL
.	.	.	20e#
.	.	.	[20dn
20ALL]	.	20cc#LL]	20d] 20e#
20GnJJ	.	20bJJ	20bJJ
=46	=46	=46	=46
4FF# 4C# 4F#	4rEE	10.a#	20a#XLL
.	.	.	20f#
.	.	.	20c#
.	.	20f#LL	20f#
.	.	20a#JJ	20a#JJ
4FF# 4C# 4A#X	4rEE	10.cc#	20cc#LL
.	.	.	20f#
.	.	.	20c#
.	.	20f#LL	20f#
.	.	20cc#JJ	20cc#JJ
[10.An	4BB	[10.cc#	20cc#LL
.	.	.	20e#
.	.	.	[20dn
20ALL]	.	20cc#LL]	20d] 20e#
20GnJJ	.	20bJJ	20bJJ
=47	=47	=47	=47
4F#	2.FF# 2.C#	10.a#	20a#XLL
.	.	.	20f#
.	.	.	20c#
.	.	20f#LL	20f#
.	.	20a#JJ	20a#JJ
4A#X	.	10.cc#	20cc#LL
.	.	.	20a#
.	.	.	20f#
.	.	20a#LL	20a#
.	.	20cc#JJ	20cc#JJ
4c#	.	10.ff#	20ff#LL
.	.	.	20cc#
.	.	.	20a#
.	.	20cc#LL	20cc#
.	.	20ff#JJ	20ff#JJ
*v	*v	*	*
*	*v	*v
=48	=48
2.FF# 2.C# 2.F# 2.c#	2.a# 2.cc# 2.ff# 2.aa#
==	==
*-	*-
!!!system-decoration: {(s1,s2)}
